X:1
T:Holy Church, 76.76 D
T:Holy Church, 76.76 D
T:Arthur Henry Brown, 1862
T:Public Domain Courtesy of the Cyber Hymnal™
C:Arthur Henry Brown, 1862
Z:Public Domain
Z:Courtesy of the Cyber Hymnal™
%%score ( 1 2 ) ( 3 4 )
L:1/8
Q:1/4=115
M:4/4
K:G
V:1 treble 
V:2 treble 
V:3 bass 
V:4 bass 
V:1
 [DG]2 | [GB]2 [FA]2 [EG]2 D2 | [CE]4 [B,D]2 [Dd]2 | [DB]2 [DA]2 [DG]2 [^CB]2 | [DA]6 [FB]2 | %5
 [GB]2 [FA]2 [EG]2 D2 x | [CE]4 [B,D]2 [DG]2 | [EG]2 [^CA]2 B2 z x3 | [B,G]6 [DA]2 | %9
 [FA]3 [FA] [Ad]2 [Ge]2 | [Fd]4 [E^c]2 [^CA]2 | [Dd]3 [DF] E2 [B,D]2 | [^CA]6 [EA]2 | %13
 [Dd]3 [DA] [FA]2 [FB]2 | [Gc]4 [GB]2 [DG]2 | [EA]3 E [DG]2 [DF]2 | [DG]6 |] %17
V:2
 x2 | x6 D2 | x8 | x8 | x8 | x6 D2 x | x8 | x4 D3 (A2 =C) | x8 | x8 | x8 | x4 E2 x2 | x8 | x8 | %14
 x8 | x3 E x4 | x6 |] %17
V:3
 [G,B,]2 | [G,D]2 [D,C]2 [E,B,]2 [B,,G,]2 | [B,,G,]4 G,2 [F,A,]2 | G,2 [F,A,]2 [E,B,]2 [A,,G,]2 | %4
 [D,F,]6 [D,D]2 | D3 z C [E,B,]2 [B,,G,]2 | [C,G,]4 [G,,G,]2 [G,B,]2 | %7
 [E,B,]2 [E,G,]2 [D,G,]2 [D,F,]2 x2 | [G,,G,]6 [D,F,]2 | [D,A,]3 [D,D] [F,D]2 [G,B,]2 | %10
 A,4 A,2 [G,A,]2 | [F,A,]3 [F,A,] [^G,B,]2 [E,G,]2 | [A,,A,]6 [G,^C]2 | %13
 [F,A,]3 [F,A,] [D,D]2 [D,D]2 | [C,E]4 [G,,D]2 [B,,D]2 | [C,C]3 [C,A,] [D,B,]2 [D,C]2 | [G,,B,]6 |] %17
V:4
 x2 | x8 | x4 G,2 x2 | G,2 x6 | x8 | G,2 D,2 x5 | x8 | x10 | x8 | x8 | A,4 A,2 x2 | x8 | x8 | x8 | %14
 x8 | x8 | x6 |] %17

